local/share/icons/dracula-icons-main/scalable/apps/ibus-anthy.svg

<?xml version="1.0" encoding="UTF-8"?>
<svg xmlns="http://www.w3.org/2000/svg" xmlns:xlink="http://www.w3.org/1999/xlink" width="64" height="64" viewBox="0 0 64 64">
<defs>
<filter id="filter-remove-color" x="0%" y="0%" width="100%" height="100%">
<feColorMatrix color-interpolation-filters="sRGB" values="0 0 0 0 1 0 0 0 0 1 0 0 0 0 1 0 0 0 1 0" />
</filter>
<mask id="mask-0">
<g filter="url(#filter-remove-color)">
<rect x="-6.4" y="-6.4" width="76.8" height="76.8" fill="rgb(0%, 0%, 0%)" fill-opacity="0.15"/>
</g>
</mask>
<clipPath id="clip-0">
<rect x="0" y="0" width="17" height="17"/>
</clipPath>
<g id="source-14222" clip-path="url(#clip-0)">
<path fill-rule="nonzero" fill="rgb(0%, 0%, 0%)" fill-opacity="1" d="M 4.539062 12.394531 L 3.792969 13.140625 C 5.03125 14.382812 6.710938 15.078125 8.464844 15.082031 C 10.21875 15.078125 11.902344 14.382812 13.140625 13.140625 L 12.394531 12.394531 C 11.351562 13.433594 9.941406 14.023438 8.464844 14.023438 C 6.992188 14.023438 5.582031 13.433594 4.539062 12.394531 Z M 4.539062 12.394531 "/>
</g>
</defs>
<path fill-rule="nonzero" fill="rgb(28.627451%, 54.901961%, 84.705882%)" fill-opacity="1" d="M 15.609375 8.464844 C 15.609375 12.410156 12.410156 15.609375 8.464844 15.609375 C 4.519531 15.609375 1.324219 12.410156 1.324219 8.464844 C 1.324219 4.519531 4.519531 1.324219 8.464844 1.324219 C 12.410156 1.324219 15.609375 4.519531 15.609375 8.464844 Z M 15.609375 8.464844 "/>
<g mask="url(#mask-0)">
<use xlink:href="#source-14222"/>
</g>
<path fill-rule="nonzero" fill="rgb(100%, 100%, 100%)" fill-opacity="1" d="M 11.03125 4.894531 C 10.023438 5.113281 8.890625 5.242188 7.933594 5.292969 L 7.984375 5.039062 C 8.042969 4.757812 8.085938 4.480469 8.179688 4.183594 L 6.992188 4.132812 C 7.003906 4.410156 6.992188 4.613281 6.953125 4.976562 C 6.941406 5.078125 6.917969 5.191406 6.902344 5.316406 C 6.390625 5.308594 5.757812 5.242188 5.257812 5.15625 L 5.257812 6.199219 C 5.679688 6.238281 6.171875 6.273438 6.707031 6.28125 C 6.484375 7.203125 6.148438 8.324219 5.75 9.09375 L 6.738281 9.449219 C 6.824219 9.304688 6.882812 9.195312 6.976562 9.085938 C 7.476562 8.441406 8.332031 8.09375 9.296875 8.09375 C 10.109375 8.09375 10.550781 8.515625 10.550781 9.015625 C 10.550781 10.253906 8.695312 10.472656 6.859375 10.175781 L 7.15625 11.261719 C 9.863281 11.546875 11.675781 10.871094 11.675781 8.984375 C 11.675781 7.917969 10.777344 7.1875 9.421875 7.1875 C 8.652344 7.1875 8.019531 7.339844 7.339844 7.714844 C 7.476562 7.304688 7.613281 6.773438 7.722656 6.265625 C 8.847656 6.207031 10.175781 6.046875 11.050781 5.910156 Z M 11.03125 4.894531 "/>
</svg>

<?xml version="1.0" encoding="UTF-8"?>
<svg width="64" height="64" version="1.1" viewBox="0 0 16.933 16.933" xmlns="http://www.w3.org/2000/svg" xmlns:cc="http://creativecommons.org/ns#" xmlns:dc="http://purl.org/dc/elements/1.1/" xmlns:rdf="http://www.w3.org/1999/02/22-rdf-syntax-ns#">
 <metadata>
  <rdf:RDF>
   <cc:Work rdf:about="">
    <dc:format>image/svg+xml</dc:format>
    <dc:type rdf:resource="http://purl.org/dc/dcmitype/StillImage"/>
    <dc:title/>
   </cc:Work>
  </rdf:RDF>
 </metadata>
 <circle cx="8.4665" cy="8.4665" r="7.1436" fill="#498cd8" style="paint-order:stroke fill markers"/>
 <path d="m4.5402 12.393-0.74776 0.74776a6.6145 6.6145 0 0 0 4.6741 1.9404 6.6145 6.6145 0 0 0 4.6741-1.9404l-0.74776-0.74776a5.5562 5.5562 0 0 1-3.9264 1.6299 5.5562 5.5562 0 0 1-3.9264-1.6299z" opacity=".15" stroke-width=".92592" style="paint-order:stroke fill markers"/>
 <path d="m11.032 4.8936c-1.0075 0.22013-2.142 0.34713-3.0987 0.39793l0.050799-0.254c0.059266-0.27939 0.1016-0.55879 0.19473-0.85512l-1.1853-0.050799c0.00847 0.27939 0 0.48259-0.042332 0.84665-0.00847 0.1016-0.033866 0.21166-0.050799 0.33866-0.50799-0.00847-1.143-0.076199-1.6425-0.16086v1.0414c0.42332 0.042333 0.91438 0.076199 1.4478 0.084665-0.22013 0.92285-0.55879 2.0404-0.95671 2.8109l0.99058 0.35559c0.084665-0.14393 0.14393-0.254 0.23706-0.36406 0.49952-0.64345 1.3546-0.99058 2.3198-0.99058 0.81278 0 1.253 0.42332 1.253 0.92285 0 1.2361-1.8542 1.4562-3.6914 1.1599l0.29633 1.0837c2.7093 0.28786 4.5211-0.38946 4.5211-2.2775 0-1.0668-0.89745-1.7949-2.2521-1.7949-0.77045 0-1.4054 0.1524-2.0828 0.52492 0.13546-0.40639 0.27093-0.93978 0.38099-1.4478 1.126-0.059265 2.4553-0.22013 3.3273-0.35559z" fill="#fff" stroke-width=".26458"/>
</svg>
